X:1
T:Partita N° 3 for Keyboard
T:Partita N° 3 for Keyboard
T:Partita No.3 in A minor, BWV 827 
T:J.S.Bach
C:J.S.Bach
%%score { 1 | ( 2 3 4 5 ) }
L:1/8
Q:1/4=126
M:2/4
K:C
V:1 treble nm="Piano" snm="Pno."
V:2 bass 
V:3 bass 
V:4 bass 
V:5 bass 
V:1
"^Allegro vivace."!f! e/c/A- |!p! A^G/A/ B/c/d/B/ | (d/c/B/.A/)!f! e/d/c/B/ | %3
!p! A/E/A/c/ B/E/B/d/ | c/e/c/A/ c/A/G/F/ | E/G/A/B/ c/F/E/D/ | C/"_cresc."G/A/B/ c/B/c/A/ | %7
 c/B/c/G/ c/B/c/F/ |!<(! E/G/A/B/ c/d/!<)!e- | e/d/e/f/ e/d/c/B/ |!<(! A/G/A/B/ c/d/e/!<)!f/ | %11
!f!!>(! gc e/d/c/!>)!B/ | .Mc2 ::!f! g/e/c- |!p! cB/c/ d/e/f/d/ | (f/e/d/.c/)!f! a/f/d- | %16
!p! d^c/d/ e/f/g/e/ | (g/f/e/.d/)!f! _b/c'/b/g/ | a/d'/a/f/ g/a/g/e/ | f/d'/f/d/ _e/_b/g/e/ | %20
 (^c/A/a) Md!>(!e/c/!>)! | Md2!f! f/d/A- |!p! AB/=c/ d/e/f/d/ | (c/B/A/.G/)!f! e/c/^G- | %24
!p! GA/B/ c/d/e/c/ | B/A/^G/A/"_cresc." d/F/E/D/ | d/^G/^F/E/ d/B/A/G/ | d/c/B/=f/ e/d/c/B/ | %28
 c/B/d/c/ B/A/!>(!^G/A/ | (B/^G/^F/!>)!.E/) e/c/A- | A!<(!^G/A/ B/c/d/e/!<)! | %31
!f! f/e/d/f/ e/d/c/B/ | c/d/!>(!e/A/ c/B/A/^G/!>)! | .MA2 :| %34
V:2
 A, z | A, z ^G, z | A, z A, z | A, z ^G, z | A, z .A,,.A, | .G,.G,,.F,,.F, | .E,.E,,.A,,.F, | %7
 .E,.G,,.F,,.D, | .C,.E,,.G,,.C, | .F,,.A,,.D,.F,- | F,/E,/D,/C,/ B,,/A,,/G,,/F,,/ | E,,A,,F,,G,, | %12
 .C,,2 :: C z | C z B, z | C z D z | _B, z A, z | A, z .D.D, | .C,.C._B,._B,, | .A,,.A,.G,G,,- | %20
 G,,/E,/F,/G,/ A,A,, | D,/A,,/F,,/A,,/ (D,,F,,/A,,/) | .D,.C,.B,,.A,, | %23
 (G,,A,,/B,,/) C,/D,/E,/C,/ | .F,.E,.D,.C, | .D,.C,.B,,.A,, | .B,,.A,,.^G,,.^F,, | %27
 .^G,,.E,.^F,.^G, | .A,.=F,.D,.F, | (E,D,) C z | B, z F, z | !>!D,/ x7/2 | .A,.C,.D,.E, | .A,,2 :| %34
V:3
 E, z | E, z !wedge!E, z | A, z E, z | E, z E, z | A, x3 | x4 | x4 | x4 | x4 | x4 | x4 | x4 | x2 :: %13
 G, z | G, z !wedge!G, z | C z A, z | G, z E, z | D, z x2 | x4 | x4 | x4 | x4 | x4 | x4 | x4 | x4 | %26
 x4 | x4 | x4 | x2 G, z | F, z D, z | B,,/ x7/2 | x4 | x2 :| %34
V:4
 C, z | !wedge!C, z x z | x z C, z | C, z x z | x4 | x4 | x4 | x4 | x4 | x4 | x4 | x4 | x2 :: %13
 E, z | !wedge!E, z x z | x z F, z | x z ^C, z | x z x2 | x4 | x4 | x4 | x4 | x4 | x4 | x4 | x4 | %26
 x4 | x4 | x4 | x2 E, z | D, z B,, z | ^G,,/A,,/B,,/C,/ D,/E,/^F,/^G,/ | x4 | x2 :| %34
V:5
 !wedge!A,, z | x z x z | x z A,, z | x z x z | x4 | x4 | x4 | x4 | x4 | x4 | x4 | x4 | x2 :: %13
 !wedge!C, z | x z x z | x z x z | x z x z | x z x2 | x4 | x4 | x4 | x4 | x4 | x4 | x4 | x4 | x4 | %27
 x4 | x4 | x2 !wedge!C, z | !wedge!B,, z !wedge!A,, z | x4 | x4 | x2 :| %34

